X: 1464
T: Girls Will You Take Him?   #2
R: reel
%S: s:2 b:12(6+6)
B: O'Neill's 1850 #1464
O: McNamara
Z: Bob Safranek, rjs@gsp.org
Z: Compacted via repeats and multiple endings [JC]
M: C|
L: 1/8
K: D
|: D3E FGAF | D2(AF) GECE | D3E FGAB | cAdB cAG [1 E :|[2 B |] Addc dfed | AcBd cAGB |
| Adde fdeB | cAdB cAGE || Addc dfed | AcBd cdeg | agef {a}gfed | cAdB {d}cAGE |]
